icons-dark/actions/22/edit-text-frame-update.svg

<svg xmlns="http://www.w3.org/2000/svg" viewBox="0 0 22 22">
  <defs id="defs3051">
    <style type="text/css" id="current-color-scheme">
      .ColorScheme-Text {
        color:#f2f2f2
      }
      </style>
  </defs>
 <path 
    style="fill:currentColor;fill-opacity:1;stroke:none" 
     d="m 9,3 0,1 8,0 0,10 -4,0 0,1 0,3 -8,0 0,-10 -1,0 0,11 1,0 8,0 1,0 0,-0.0098 L 14.007812,19 18,15.007812 18,15 18,13.59375 18,3 17,3 9,3 m 0,3 0,1 6,0 0,-1 -6,0 m -2,3 0,1 8,0 0,-1 -8,0 m 0,3 0,1 8,0 0,-1 -8,0 m 0,3 0,1 4,0 0,-1 -4,0" 
    class="ColorScheme-Text"
    />  
  <path
     style="fill:#1d99f3;fill-rule:evenodd"
     d="M 3,3 5,6 7,3 Z" />
</svg>

<?xml version="1.0" encoding="UTF-8" standalone="no"?>
<!-- Created with Inkscape (http://www.inkscape.org/) -->

<svg
   xmlns:dc="http://purl.org/dc/elements/1.1/"
   xmlns:cc="http://creativecommons.org/ns#"
   xmlns:rdf="http://www.w3.org/1999/02/22-rdf-syntax-ns#"
   xmlns:svg="http://www.w3.org/2000/svg"
   xmlns="http://www.w3.org/2000/svg"
   xmlns:sodipodi="http://sodipodi.sourceforge.net/DTD/sodipodi-0.dtd"
   xmlns:inkscape="http://www.inkscape.org/namespaces/inkscape"
   width="22"
   height="22"
   id="svg3815"
   version="1.1"
   inkscape:version="0.48+devel r"
   sodipodi:docname="edit-text-frame-update.svg">
  <defs
     id="defs3817" />
  <sodipodi:namedview
     id="base"
     pagecolor="#ffffff"
     bordercolor="#666666"
     borderopacity="1.0"
     inkscape:pageopacity="0.0"
     inkscape:pageshadow="2"
     inkscape:zoom="19.058633"
     inkscape:cx="9.8003153"
     inkscape:cy="12.774844"
     inkscape:document-units="px"
     inkscape:current-layer="layer1"
     showgrid="true"
     fit-margin-top="0"
     fit-margin-left="0"
     fit-margin-right="0"
     fit-margin-bottom="0"
     inkscape:window-width="1366"
     inkscape:window-height="668"
     inkscape:window-x="-2"
     inkscape:window-y="23"
     inkscape:window-maximized="1"
     inkscape:showpageshadow="false"
     borderlayer="false">
    <sodipodi:guide
       position="2.0000044,19.999979"
       orientation="18,0"
       id="guide3338" />
    <sodipodi:guide
       position="2.0000044,1.9999785"
       orientation="0,18"
       id="guide3340" />
    <sodipodi:guide
       position="20.000004,1.9999785"
       orientation="-18,0"
       id="guide3342" />
    <sodipodi:guide
       position="20.000004,19.999979"
       orientation="0,-18"
       id="guide3344" />
    <sodipodi:guide
       position="3.0000044,18.999979"
       orientation="16,0"
       id="guide3346" />
    <sodipodi:guide
       position="3.0000044,2.9999785"
       orientation="0,16"
       id="guide3348" />
    <sodipodi:guide
       position="19.000004,2.9999785"
       orientation="-16,0"
       id="guide3350" />
    <sodipodi:guide
       position="17,19"
       orientation="0,-16"
       id="guide3352" />
    <inkscape:grid
       type="xygrid"
       id="grid3354" />
  </sodipodi:namedview>
  <metadata
     id="metadata3820">
    <rdf:RDF>
      <cc:Work
         rdf:about="">
        <dc:format>image/svg+xml</dc:format>
        <dc:type
           rdf:resource="http://purl.org/dc/dcmitype/StillImage" />
        <dc:title />
      </cc:Work>
    </rdf:RDF>
  </metadata>
  <g
     inkscape:label="Capa 1"
     inkscape:groupmode="layer"
     id="layer1"
     transform="translate(-461.71429,-525.79075)">
    <path
       style="fill:#f2f2f2;fill-opacity:1;stroke:none"
       d="M 9 3 L 9 4 L 17 4 L 17 14 L 13 14 L 13 15 L 13 18 L 5 18 L 5 8 L 4 8 L 4 19 L 5 19 L 13 19 L 14 19 L 14 18.990234 L 14.007812 19 L 18 15.007812 L 18 15 L 18 13.59375 L 18 3 L 17 3 L 9 3 z M 9 6 L 9 7 L 15 7 L 15 6 L 9 6 z M 7 9 L 7 10 L 15 10 L 15 9 L 7 9 z M 7 12 L 7 13 L 15 13 L 15 12 L 7 12 z M 7 15 L 7 16 L 11 16 L 11 15 L 7 15 z "
       transform="translate(461.71429,525.79075)"
       id="rect4139" />
    <path
       style="fill:#1d99f3;fill-rule:evenodd;stroke:none;stroke-width:1px;stroke-linecap:butt;stroke-linejoin:miter;stroke-opacity:1;fill-opacity:1"
       d="m 464.71429,528.79075 2,3 2,-3 z"
       id="path4133-6"
       inkscape:connector-curvature="0"
       sodipodi:nodetypes="cccc" />
  </g>
</svg>
